X:2151
T:Gander in the Pratie Hole, The
O:england
R:jig
D:Planxty
M:6/8
L:1/8
K:Dmix
FAD FAD|~G3 EFG|FAD FAD|GED D2E|
FAD FAD|~G3 EFG|fed ecA|1 GEA D2E:|2 GEA D3||
Ad^c ded|cAB cAG|Ad^c ded|cAB c2A|
Ad^c ded|cAB cde|fed ecA|1 GEA D3:|2 GEA D2E|
